X:39
T:RVW2/2/39 John Barleycorn
C:Mr. Peacock, Ingrave, Essex, 16 April 1904
L:1/4
Q:1/4=126
M:4/4
I:linebreak $
K:C
"^(Editorial suggestion)  " G | c c d B/B/ | c c !fermata!G c/c/ | e c e f | g3 g |$ e e/f/ g g | 
e e/d/ c G | c c/d/ e d | c3 |] 



